build/service/EyeOutline.svg

<svg xmlns="http://www.w3.org/2000/svg" fill="none" viewBox="0 0 24 24" focusable="false"><path d="M0 0H24V24H0z"/><path fill="#74767B" fill-rule="evenodd" d="M2.43688 10.6825C3.86625 8.65464 7.11931 5 12 5C16.8808 5 20.1338 8.65464 21.5632 10.6825C22.1262 11.4812 22.1262 12.5188 21.5632 13.3175C20.1338 15.3454 16.8808 19 12 19C7.11931 19 3.86626 15.3454 2.43688 13.3175C1.8739 12.5188 1.8739 11.4812 2.43688 10.6825ZM6.30004 12C6.30004 15.148 8.85202 17.7 12 17.7C15.1481 17.7 17.7 15.148 17.7 12C17.7 8.85198 15.1481 6.3 12 6.3C8.85202 6.3 6.30004 8.85198 6.30004 12ZM20.5006 11.4315C19.979 10.6914 19.2382 9.77768 18.2913 8.92728C18.7452 9.85489 19 10.8977 19 12C19 13.1023 18.7452 14.1451 18.2913 15.0727C19.2382 14.2223 19.979 13.3086 20.5006 12.5685C20.747 12.2189 20.747 11.7811 20.5006 11.4315ZM3.49945 11.4315C4.02109 10.6914 4.76185 9.77768 5.70874 8.92728C5.25483 9.85489 5.00004 10.8977 5.00004 12C5.00004 13.1023 5.25483 14.1451 5.70873 15.0727C4.76185 14.2223 4.02109 13.3086 3.49945 12.5685C3.25305 12.2189 3.25305 11.7811 3.49945 11.4315ZM11.3061 9.08066C11.6823 8.99158 12 9.3134 12 9.7L12 10.7C12 11.418 12.5821 12 13.3 12L14.3 12C14.6866 12 15.0085 12.3178 14.9194 12.6939C14.6062 14.0162 13.418 15 12 15C10.3432 15 9.00003 13.6569 9.00003 12C9.00003 10.582 9.98382 9.39379 11.3061 9.08066Z"/></svg>

<svg xmlns="http://www.w3.org/2000/svg" fill="none" viewBox="0 0 24 24" focusable="false"><path fill="#74767B" fill-rule="evenodd" d="M2.43 10.68C3.86 8.65 7.11 5 12 5c4.88 0 8.13 3.65 9.56 5.68.56.8.56 1.83 0 2.63C20.13 15.34 16.88 19 12 19c-4.89 0-8.14-3.66-9.57-5.69-.56-.8-.56-1.83 0-2.63M6.29 12c0 3.14 2.56 5.7 5.71 5.7 3.14 0 5.7-2.56 5.7-5.7 0-3.15-2.56-5.71-5.7-5.71-3.15 0-5.71 2.56-5.71 5.71m14.21-.57c-.53-.74-1.27-1.66-2.21-2.51.45.93.71 1.97.71 3.08 0 1.1-.26 2.14-.71 3.07.94-.85 1.68-1.77 2.21-2.51.24-.35.24-.78 0-1.13m-17.01 0c.53-.74 1.27-1.66 2.21-2.51-.45.93-.7 1.97-.7 3.08 0 1.1.25 2.14.7 3.07-.94-.85-1.68-1.77-2.21-2.51a.98.98 0 0 1 0-1.13M12 9.7c0-.39-.32-.71-.7-.62A3.002 3.002 0 0 0 12 15a3 3 0 0 0 2.91-2.31c.09-.38-.23-.69-.62-.69h-1c-.71 0-1.29-.59-1.29-1.3z"/></svg>
